X: 39
T:Maid in the Morning (#149), The
M:6/8
L:1/8
S:O'Farrell's Pocket Companion 1804-10
K:G
EGE G2 A|BAG B3|EGE G2 A|BGE GED|
EGE G2 A|BAG B2 d|ege dBG|A3 A3:|
|:AGE AGE|A2 B c3|EGE G2 A|BGE GED|
BGE BGE|A2 B c2 d|ege dBG|A3 A3:|
|:gfe gdB|A2 B c3|EGE G2 A|BGE GED|
gfe gdB|A2 B c2 d|ege dBG|A3 A3:||

